assets/img/components/radio-button-header.svg

<svg width="579" height="145" viewBox="0 0 579 145" fill="none" xmlns="http://www.w3.org/2000/svg">
<path d="M105.125 145H0C0 64.9187 64.9187 0 145 0V105.125C145 127.147 127.147 145 105.125 145Z" fill="#286AD8"/>
<path d="M434 145C514.021 145 578.89 80.0938 578.89 0.0279083L579 0H434V145Z" fill="#286AD8"/>
<path d="M290 0C370.081 0 435 64.9187 435 145H145V0H290Z" fill="#286AD8"/>
<g style="mix-blend-mode:multiply" opacity="0.4">
<path d="M205.262 47.2002C210.325 47.2002 214.896 49.3177 218.161 52.7031L219.157 53.6934C219.326 53.8555 219.493 54.019 219.655 54.1875C219.825 54.3499 219.991 54.5147 220.154 54.6836C220.323 54.8457 220.49 55.0092 220.652 55.1777C220.822 55.3401 220.988 55.505 221.15 55.6738C221.32 55.8361 221.487 56.0002 221.649 56.1689C221.818 56.3309 221.984 56.4947 222.146 56.6631C222.316 56.8255 222.483 56.9903 222.646 57.1592C222.814 57.3213 222.981 57.4848 223.144 57.6533C223.313 57.8157 223.48 57.9806 223.643 58.1494C223.811 58.3114 223.977 58.4752 224.14 58.6436C224.309 58.806 224.476 58.9708 224.639 59.1396C224.808 59.3019 224.974 59.466 225.137 59.6348C225.306 59.7969 225.472 59.9604 225.635 60.1289C225.804 60.2913 225.971 60.4562 226.134 60.625C226.303 60.7871 226.469 60.9506 226.632 61.1191L227.628 62.1094C227.797 62.2717 227.964 62.4357 228.127 62.6045L229.123 63.5947C229.292 63.7571 229.459 63.921 229.622 64.0898C229.791 64.252 229.957 64.4164 230.119 64.585C230.288 64.7473 230.455 64.9113 230.618 65.0801L231.614 66.0703C231.645 66.1002 231.68 66.128 231.711 66.1582C231.595 65.8386 231.522 65.4978 231.521 65.1387C231.521 63.4943 232.847 62.1484 234.466 62.1484H274.421C275.341 62.1485 276.156 62.5923 276.697 63.2695C276.883 63.414 277.048 63.5804 277.195 63.7646C277.381 63.9092 277.546 64.0754 277.693 64.2598C277.879 64.4043 278.044 64.5706 278.191 64.7549C278.377 64.8995 278.543 65.0656 278.69 65.25L358.171 145H216.092L197.845 126.869C197.675 126.707 197.509 126.543 197.346 126.374L195.354 124.394C195.184 124.231 195.017 124.067 194.854 123.898L193.36 122.413C193.191 122.251 193.024 122.087 192.861 121.918C189.456 118.651 187.323 114.067 187.323 108.987C187.323 99.0968 195.371 91.05 205.262 91.0498C205.493 91.0498 205.717 91.0753 205.946 91.084C205.901 91.0385 205.862 90.9883 205.817 90.9424C205.648 90.78 205.481 90.6151 205.318 90.4463C205.149 90.2841 204.983 90.1207 204.82 89.9521C204.651 89.7898 204.485 89.6249 204.322 89.4561C204.153 89.2939 203.987 89.1304 203.824 88.9619C203.655 88.7995 203.488 88.6347 203.325 88.4658C203.156 88.3036 202.99 88.1394 202.827 87.9707C202.658 87.8086 202.492 87.6451 202.329 87.4766C202.16 87.3142 201.993 87.1493 201.83 86.9805C201.661 86.8185 201.495 86.6547 201.333 86.4863C201.164 86.3239 200.997 86.1591 200.834 85.9902C200.665 85.8281 200.498 85.6646 200.336 85.4961C200.167 85.3337 200 85.1688 199.837 85C199.668 84.8378 199.501 84.6735 199.339 84.5049C199.17 84.3428 199.003 84.1792 198.841 84.0107L197.845 83.0205C197.675 82.8581 197.508 82.6942 197.346 82.5254L196.35 81.5352C196.18 81.3729 196.013 81.2088 195.851 81.04C195.682 80.8779 195.516 80.7134 195.354 80.5449C195.184 80.3826 195.017 80.2186 194.854 80.0498C194.685 79.8876 194.519 79.7233 194.356 79.5547C194.187 79.3923 194.02 79.2284 193.857 79.0596C193.688 78.8974 193.523 78.733 193.36 78.5645C193.191 78.4021 193.024 78.2381 192.861 78.0693C189.456 74.8025 187.323 70.2188 187.323 65.1387C187.323 55.2475 195.371 47.2003 205.262 47.2002Z" fill="#1545BB"/>
</g>
<path d="M274.474 62H234.381C232.757 62 231.428 63.35 231.428 65C231.428 66.65 232.757 68 234.381 68H274.474C276.099 68 277.428 66.65 277.428 65C277.428 63.35 276.099 62 274.474 62Z" fill="#5187DF"/>
<path d="M282.441 106H234.415C232.772 106 231.428 107.35 231.428 109C231.428 110.65 232.772 112 234.415 112H282.441C284.084 112 285.428 110.65 285.428 109C285.428 107.35 284.084 106 282.441 106Z" fill="#5187DF"/>
<circle cx="204.574" cy="109" r="16" stroke="#5187DF" stroke-width="4"/>
<circle cx="204.574" cy="65" r="16" stroke="#5187DF" stroke-width="4"/>
<circle cx="204.574" cy="65" r="9" fill="#5187DF"/>
</svg>

<svg xmlns="http://www.w3.org/2000/svg" width="579" height="145" fill="none" viewBox="0 0 579 145"><path fill="#286ad8" d="M105.125 145H0C0 64.919 64.919 0 145 0v105.125C145 127.147 127.147 145 105.125 145M434 145C514.021 145 578.89 80.094 578.89.028L579 0H434z"/><path fill="#286ad8" d="M290 0c80.081 0 145 64.919 145 145H145V0z"/><path fill="#1545bb" d="M205.262 47.2c5.063 0 9.634 2.118 12.899 5.503l.996.99q.254.243.498.495.255.243.499.496.254.242.498.494.255.243.498.496.256.242.499.495.254.242.497.494.255.243.5.496.253.242.498.494.254.244.499.496.252.242.497.495.254.243.499.496.254.242.498.495.254.242.498.494.254.243.499.496.254.242.498.494l.996.99q.254.244.499.495l.996.99q.254.243.499.496.254.242.497.495.254.242.499.495l.996.99q.048.044.097.088a3 3 0 0 1-.19-1.02c0-1.644 1.326-2.99 2.945-2.99h39.955c.92 0 1.735.444 2.276 1.121q.278.218.498.496.278.217.498.495.278.217.498.495.279.217.499.495L358.171 145H216.092l-18.247-18.131q-.255-.242-.499-.495l-1.992-1.98q-.255-.243-.5-.496l-1.494-1.485a18 18 0 0 1-.499-.495c-3.405-3.267-5.538-7.851-5.538-12.931 0-9.89 8.048-17.937 17.939-17.937.231 0 .455.025.684.034-.045-.046-.084-.096-.129-.142a19 19 0 0 1-.499-.496 19 19 0 0 1-.498-.494 19 19 0 0 1-.498-.496 19 19 0 0 1-.498-.494 19 19 0 0 1-.499-.496 19 19 0 0 1-.498-.495 19 19 0 0 1-.498-.494 19 19 0 0 1-.499-.496 17 17 0 0 1-.497-.495 19 19 0 0 1-.499-.496 17 17 0 0 1-.498-.494 19 19 0 0 1-.499-.496 17 17 0 0 1-.498-.495 17 17 0 0 1-.498-.494l-.996-.99q-.255-.244-.499-.496l-.996-.99q-.256-.242-.499-.495a17 17 0 0 1-.497-.495q-.255-.242-.5-.495a19 19 0 0 1-.498-.495 19 19 0 0 1-.499-.495 19 19 0 0 1-.497-.496 19 19 0 0 1-.499-.495c-3.405-3.267-5.538-7.85-5.538-12.93 0-9.891 8.048-17.939 17.939-17.939" opacity=".4" style="mix-blend-mode:multiply"/><path fill="#5187df" d="M274.474 62h-40.093c-1.624 0-2.953 1.35-2.953 3s1.329 3 2.953 3h40.093c1.625 0 2.954-1.35 2.954-3s-1.329-3-2.954-3M282.441 106h-48.026c-1.643 0-2.987 1.35-2.987 3s1.344 3 2.987 3h48.026c1.643 0 2.987-1.35 2.987-3s-1.344-3-2.987-3"/><circle cx="204.574" cy="109" r="16" stroke="#5187df" stroke-width="4"/><circle cx="204.574" cy="65" r="16" stroke="#5187df" stroke-width="4"/><circle cx="204.574" cy="65" r="9" fill="#5187df"/></svg>
